assets/icons/qvision/wb_sunny.svg

<svg xmlns="http://www.w3.org/2000/svg" height="24" viewBox="0 0 24 24" width="24"><path d="M0 0h24v24H0z" fill="none"/><path d="M6.76 4.84l-1.8-1.79-1.41 1.41 1.79 1.79 1.42-1.41zM4 10.5H1v2h3v-2zm9-9.95h-2V3.5h2V.55zm7.45 3.91l-1.41-1.41-1.79 1.79 1.41 1.41 1.79-1.79zm-3.21 13.7l1.79 1.8 1.41-1.41-1.8-1.79-1.4 1.4zM20 10.5v2h3v-2h-3zm-8-5c-3.31 0-6 2.69-6 6s2.69 6 6 6 6-2.69 6-6-2.69-6-6-6zm-1 16.95h2V19.5h-2v2.95zm-7.45-3.91l1.41 1.41 1.79-1.8-1.41-1.41-1.79 1.8z"/></svg>

<svg width="24" height="24" viewBox="0 0 24 24" fill="none" xmlns="http://www.w3.org/2000/svg">
<g clip-path="url(#clip0_147_3788)">
<path d="M6.76 4.84L4.96 3.05L3.55 4.46L5.34 6.25L6.76 4.84ZM4 10.5H1V12.5H4V10.5ZM13 0.550003H11V3.5H13V0.550003ZM20.45 4.46L19.04 3.05L17.25 4.84L18.66 6.25L20.45 4.46ZM17.24 18.16L19.03 19.96L20.44 18.55L18.64 16.76L17.24 18.16ZM20 10.5V12.5H23V10.5H20ZM12 5.5C8.69 5.5 6 8.19 6 11.5C6 14.81 8.69 17.5 12 17.5C15.31 17.5 18 14.81 18 11.5C18 8.19 15.31 5.5 12 5.5ZM11 22.45H13V19.5H11V22.45ZM3.55 18.54L4.96 19.95L6.75 18.15L5.34 16.74L3.55 18.54Z" fill="#323232"/>
</g>
<defs>
<clipPath id="clip0_147_3788">
<rect width="24" height="24" fill="white"/>
</clipPath>
</defs>
</svg>
